icons/wubi-input.svg

<svg xmlns="http://www.w3.org/2000/svg" viewBox="0 0 24 24">
    <path fill="none" d="M0 0h24v24H0z"/>
    <path d="M3 21v-2h3.662l1.234-7H5v-2h3.249l.881-5H4V3h16v2h-8.839l-.882 5H18v9h3v2H3zm13-9H9.927l-1.235 7H16v-7z"/>
</svg>

<svg viewBox="0 0 24 24" fill="currentColor" xmlns="http://www.w3.org/2000/svg"><path d="M3 21V19H6.662L7.896 12H5V10H8.249L9.13 5H4V3H20V5H11.161L10.279 10H18V19H21V21H3ZM16 12H9.927L8.692 19H16V12Z"/></svg>
